; generated by SuperSlicer 2.4 on 2023-07-02 at 07:04:00 UTC


;
;

;
;
; 

; external perimeters extrusion width = 0.40mm
; perimeters extrusion width = 0.50mm
; infill extrusion width = 0.64mm
; solid infill extrusion width = 0.56mm
; top infill extrusion width = 0.40mm
; first layer extrusion width = 0.70mm

; object:{"name":"QR","id":"QR.STL id:0 copy 0","object_center":[150.000000,150.000000,0.000000],"boundingbox_center":[150.000000,150.000000,1.000000],"boundingbox_size":[41.012193,41.012193,2.000000]}
; plater:{"center":[150.000000,150.000000,0.000000],"boundingbox_center":[150.000000,150.000000,1.000000],"boundingbox_size":[41.012193,41.012193,2.000000]}

M73 P0 R10
;TYPE:Custom
; custom gcode: start_gcode
M104 S0 ; Stops PS/SS from sending temp waits separately
M140 S0
PRINT_START BED=105 HOTEND=240
; custom gcode end: start_gcode
M107
G21 ; set units to millimeters
G90 ; use absolute coordinates
M83 ; use relative distances for extrusion
; custom gcode: start_filament_gcode
; Filament gcode
; custom gcode end: start_filament_gcode
;_TOOLCHANGE 0
;LAYER_CHANGE
;Z:0.24
;HEIGHT:0.24
G1 Z0.24 F27000
G92 E0
M104 S240 ; set temperature
M73 P3 R9
G1 E-0.5 F1800
; printing object QR.STL id:0 copy 0
M204 S800
G1 X167.118 Y150 F27000
G1 E0.5 F1800
;TYPE:Internal perimeter
;WIDTH:0.7
G1 F1200
G1 X150 Y167.118 E1.51982
G1 X132.882 Y150 E1.51982
G1 X150 Y132.882 E1.51982
M73 P4 R9
G1 X167.118 Y150 E1.51982
G1 X168.035 Y150 F27000
G1 F1200
G1 X150 Y168.035 E1.60124
G1 X131.965 Y150 E1.60124
G1 X150 Y131.965 E1.60124
G1 X168.035 Y150 E1.60124
M73 P5 R9
G1 X168.953 Y150 F27000
G1 F1200
G1 X150 Y168.953 E1.68266
G1 X131.047 Y150 E1.68266
G1 X150 Y131.047 E1.68266
G1 X168.953 Y150 E1.68266
M73 P6 R9
G1 E-0.5 F1800
; acceleration to travel
M204 S1500
G1 X156.592 Y162.958 F27000
; decel to extrusion
M204 S800
G1 X150 Y169.87
; end travel
G1 E0.5 F1800
;TYPE:External perimeter
G1 F1200
G1 X130.13 Y150 E1.76409
G1 X150 Y130.13 E1.76409
G1 X169.87 Y150 E1.76409
G1 X150 Y169.87 E1.76409
;WIPE_START
M204 S3500
M73 P7 R9
G1 X149.896 Y169.483 F27000
;WIPE_END
G1 E-0.5 F1800
; acceleration to travel
M204 S1500
G1 X150.567 Y146.355 F27000
; decel to extrusion
M204 S800
G1 X150.927 Y133.946
; end travel
G1 E0.5 F1800
;TYPE:Solid infill
;WIDTH:0.681598
G1 F2400
G1 X149.467 Y133.946 E0.08922
G1 X148.819 Y134.595 E0.05606
G1 X151.181 Y134.595 E0.14439
G1 X151.83 Y135.243 E0.05606
G1 X148.17 Y135.243 E0.22368
G1 X147.522 Y135.892 E0.05606
G1 X152.478 Y135.892 E0.30296
G1 X153.127 Y136.54 E0.05606
G1 X146.873 Y136.54 E0.38224
G1 X146.225 Y137.189 E0.05606
G1 X153.775 Y137.189 E0.46153
G1 X154.424 Y137.837 E0.05606
G1 X145.576 Y137.837 E0.54081
G1 X144.928 Y138.486 E0.05606
G1 X155.072 Y138.486 E0.62009
G1 X155.721 Y139.134 E0.05606
G1 X144.279 Y139.134 E0.69938
G1 X143.631 Y139.783 E0.05606
G1 X156.369 Y139.783 E0.77866
G1 X157.018 Y140.431 E0.05606
G1 X142.982 Y140.431 E0.85794
G1 X142.334 Y141.08 E0.05606
G1 X157.666 Y141.08 E0.93723
G1 X158.315 Y141.728 E0.05606
G1 X141.685 Y141.728 E1.01651
G1 X141.037 Y142.377 E0.05606
G1 X158.963 Y142.377 E1.09579
G1 X159.612 Y143.025 E0.05606
G1 X140.388 Y143.025 E1.17507
G1 X139.74 Y143.674 E0.05606
G1 X160.26 Y143.674 E1.25436
M73 P8 R9
G1 X160.908 Y144.322 E0.05606
G1 X139.091 Y144.322 E1.33364
G1 X138.443 Y144.971 E0.05606
G1 X161.557 Y144.971 E1.41292
G1 X162.205 Y145.619 E0.05606
G1 X137.795 Y145.619 E1.49221
G1 X137.146 Y146.268 E0.05606
G1 X162.854 Y146.268 E1.57149
G1 X163.502 Y146.916 E0.05606
G1 X136.498 Y146.916 E1.65077
G1 X135.849 Y147.565 E0.05606
G1 X164.151 Y147.565 E1.73006
G1 X164.799 Y148.213 E0.05606
G1 X135.201 Y148.213 E1.80934
G1 X134.552 Y148.861 E0.05606
G1 X165.448 Y148.861 E1.88862
M73 P9 R9
G1 X166.096 Y149.51 E0.05606
G1 X133.904 Y149.51 E1.96791
G1 X133.414 Y150 E0.04236
G1 X133.572 Y150.158 E0.0137
G1 X166.428 Y150.158 E2.00844
G1 X165.779 Y150.807 E0.05606
G1 X134.221 Y150.807 E1.92915
G1 X134.869 Y151.455 E0.05606
G1 X165.131 Y151.455 E1.84987
G1 X164.483 Y152.104 E0.05606
G1 X135.517 Y152.104 E1.77059
G1 X136.166 Y152.752 E0.05606
G1 X163.834 Y152.752 E1.6913
G1 X163.186 Y153.401 E0.05606
G1 X136.814 Y153.401 E1.61202
G1 X137.463 Y154.049 E0.05606
G1 X162.537 Y154.049 E1.53274
M73 P10 R9
G1 X161.889 Y154.698 E0.05606
G1 X138.111 Y154.698 E1.45346
G1 X138.76 Y155.346 E0.05606
G1 X161.24 Y155.346 E1.37417
G1 X160.592 Y155.995 E0.05606
G1 X139.408 Y155.995 E1.29489
M73 P10 R8
G1 X140.057 Y156.643 E0.05606
G1 X159.943 Y156.643 E1.21561
G1 X159.295 Y157.292 E0.05606
G1 X140.705 Y157.292 E1.13632
G1 X141.354 Y157.94 E0.05606
G1 X158.646 Y157.94 E1.05704
G1 X157.998 Y158.589 E0.05606
G1 X142.002 Y158.589 E0.97776
G1 X142.651 Y159.237 E0.05606
G1 X157.349 Y159.237 E0.89847
G1 X156.701 Y159.886 E0.05606
G1 X143.299 Y159.886 E0.81919
G1 X143.948 Y160.534 E0.05606
G1 X156.052 Y160.534 E0.73991
G1 X155.404 Y161.183 E0.05606
G1 X144.596 Y161.183 E0.66062
M73 P11 R8
G1 X145.245 Y161.831 E0.05606
G1 X154.755 Y161.831 E0.58134
G1 X154.107 Y162.48 E0.05606
G1 X145.893 Y162.48 E0.50206
G1 X146.542 Y163.128 E0.05606
G1 X153.458 Y163.128 E0.42278
G1 X152.81 Y163.777 E0.05606
G1 X147.19 Y163.777 E0.34349
G1 X147.839 Y164.425 E0.05606
G1 X152.161 Y164.425 E0.26421
G1 X151.513 Y165.074 E0.05606
G1 X148.487 Y165.074 E0.18493
G1 X149.136 Y165.722 E0.05606
G1 X150.864 Y165.722 E0.10564
G1 X150.216 Y166.371 E0.05606
G1 X149.39 Y166.371 E0.05047
;LAYER_CHANGE
;Z:0.4
;HEIGHT:0.16
; stop printing object QR.STL id:0 copy 0
M204 S3500
G1 Z0.4 F27000
G92 E0
M104 S245 ; set temperature
M140 S110 ; set bed temperature
; printing object QR.STL id:0 copy 0
M204 S2000
G1 X168.224 Y150
;TYPE:Internal perimeter
;WIDTH:0.5
G1 F9000
G1 X150 Y168.224 E0.73766
G1 X131.776 Y150 E0.73766
G1 X150 Y131.776 E0.73766
G1 X168.224 Y150 E0.73766
G1 X168.883 Y150 F27000
G1 F9000
G1 X150 Y168.883 E0.76432
G1 X131.117 Y150 E0.76432
G1 X150 Y131.117 E0.76432
G1 X168.883 Y150 E0.76432
G1 X169.541 Y150 F27000
G1 F9000
G1 X150 Y169.541 E0.79098
G1 X130.459 Y150 E0.79098
G1 X150 Y130.459 E0.79098
G1 X169.541 Y150 E0.79098
; acceleration to travel
M204 S1500
G1 X157.418 Y162.487 F27000
; decel to extrusion
M204 S1000
G1 X150 Y170.129
; end travel
;TYPE:External perimeter
;WIDTH:0.4
G1 F4800
G1 X129.871 Y150 E0.6398
G1 X150 Y129.871 E0.6398
G1 X150.165 Y130.036 E0.00524
G1 X170.129 Y150 E0.63456
M73 P12 R8
G1 X150 Y170.129 E0.6398
;WIPE_START
M204 S3500
G1 X149.896 Y169.743 F27000
;WIPE_END
G1 X167.387 Y149.249
;TYPE:Solid infill
;WIDTH:0.551685
G1 F12000
G1 X167.387 Y150.432 E0.03766
G1 X166.861 Y150.957 E0.02366
G1 X166.861 Y149.043 E0.06095
G1 X166.335 Y148.517 E0.02366
G1 X166.335 Y151.483 E0.09441
G1 X165.81 Y152.009 E0.02366
G1 X165.81 Y147.991 E0.12787
G1 X165.284 Y147.466 E0.02366
G1 X165.284 Y152.534 E0.16134
G1 X164.758 Y153.06 E0.02366
G1 X164.758 Y146.94 E0.1948
G1 X164.233 Y146.414 E0.02366
G1 X164.233 Y153.586 E0.22827
G1 X163.707 Y154.111 E0.02366
G1 X163.707 Y145.889 E0.26173
G1 X163.181 Y145.363 E0.02366
G1 X163.181 Y154.637 E0.29519
G1 X162.656 Y155.163 E0.02366
G1 X162.656 Y144.837 E0.32866
G1 X162.13 Y144.312 E0.02366
G1 X162.13 Y155.688 E0.36212
G1 X161.604 Y156.214 E0.02366
G1 X161.604 Y143.786 E0.39558
G1 X161.079 Y143.26 E0.02366
G1 X161.079 Y156.74 E0.42905
G1 X160.553 Y157.265 E0.02366
G1 X160.553 Y142.735 E0.46251
G1 X160.027 Y142.209 E0.02366
G1 X160.027 Y157.791 E0.49598
G1 X159.502 Y158.317 E0.02366
G1 X159.502 Y141.683 E0.52944
G1 X158.976 Y141.158 E0.02366
G1 X158.976 Y158.842 E0.5629
G1 X158.45 Y159.368 E0.02366
G1 X158.45 Y140.632 E0.59637
G1 X157.925 Y140.106 E0.02366
G1 X157.925 Y159.894 E0.62983
G1 X157.399 Y160.419 E0.02366
G1 X157.399 Y139.581 E0.66329
G1 X156.873 Y139.055 E0.02366
G1 X156.873 Y160.945 E0.69676
G1 X156.348 Y161.471 E0.02366
G1 X156.348 Y138.529 E0.73022