; generated by SuperSlicer 2.4 on 2023-07-02 at 07:04:59 UTC


;
;

;
;
; 

; external perimeters extrusion width = 0.40mm
; perimeters extrusion width = 0.50mm
; infill extrusion width = 0.64mm
; solid infill extrusion width = 0.56mm
; top infill extrusion width = 0.40mm
; first layer extrusion width = 0.70mm

; object:{"name":"butterfly","id":"butterfly.stl id:0 copy 0","object_center":[150.000000,150.000000,0.000000],"boundingbox_center":[150.000000,150.000000,29.988001],"boundingbox_size":[31.548275,31.327659,59.976002]}
; plater:{"center":[150.000000,150.000000,0.000000],"boundingbox_center":[150.000000,150.000000,29.988001],"boundingbox_size":[31.548275,31.327659,59.976002]}

M73 P0 R82
;TYPE:Custom
; custom gcode: start_gcode
M104 S0 ; Stops PS/SS from sending temp waits separately
M140 S0
PRINT_START BED=105 HOTEND=240
; custom gcode end: start_gcode
M107
G21 ; set units to millimeters
G90 ; use absolute coordinates
M83 ; use relative distances for extrusion
; custom gcode: start_filament_gcode
; Filament gcode
; custom gcode end: start_filament_gcode
;_TOOLCHANGE 0
;LAYER_CHANGE
;Z:0.24
;HEIGHT:0.24
G1 Z0.24 F27000
G92 E0
M104 S240 ; set temperature
M73 P0 R81
G1 E-0.5 F1800
; printing object butterfly.stl id:0 copy 0
M204 S800
G1 X153.577 Y140.908 F27000
G1 E0.5 F1800
;TYPE:Internal perimeter
;WIDTH:0.7
G1 F1200
G1 X153.206 Y141.042 E0.02482
G1 X152.091 Y142.008 E0.09261
G1 X151.623 Y142.483 E0.04181
G1 X151.078 Y143.134 E0.05331
G1 X150.963 Y143.156 E0.00738
G1 X149.819 Y143.899 E0.08567
G1 X149.003 Y144.969 E0.08446
G1 X148.7 Y146.021 E0.06873
G1 X148.197 Y146.067 E0.03172
G1 X147.298 Y146.419 E0.06059
G1 X146.814 Y146.711 E0.03548
G1 X146.343 Y147.092 E0.03802
G1 X145.687 Y147.868 E0.06382
G1 X145.633 Y147.995 E0.00868
G1 X143.886 Y149.586 E0.14831
G1 X143.555 Y149.808 E0.02504
G1 X143.074 Y150.196 E0.03878
G1 X141.979 Y151.194 E0.093
G1 X141.549 Y151.637 E0.03878
G1 X141.034 Y152.271 E0.05126
G1 X140.657 Y152.465 E0.02664
G1 X140.39 Y152.153 E0.02575
G1 X140.562 Y151.917 E0.01835
G1 X141.528 Y150.798 E0.09277
G1 X143.264 Y148.996 E0.15709
G1 X143.993 Y148.136 E0.07081
G1 X144.722 Y146.754 E0.09807
G1 X144.95 Y145.858 E0.05809
G1 X145.069 Y144.966 E0.05647
G1 X145.216 Y143.513 E0.09166
G1 X145.39 Y142.717 E0.05115
G1 X145.545 Y142.186 E0.03473
G1 X145.98 Y141.015 E0.07843
G1 X146.357 Y140.259 E0.05304
G1 X146.692 Y139.696 E0.04113
G1 X147.425 Y138.743 E0.07549
G1 X147.667 Y138.503 E0.0214
G1 X147.966 Y138.246 E0.02475
G1 X148.301 Y138.001 E0.02602
G1 X148.55 Y137.862 E0.01794
G1 X149.05 Y137.692 E0.03315
G1 X149.222 Y137.674 E0.01085
G1 X149.565 Y137.666 E0.0215
G1 X149.813 Y137.694 E0.01569
G1 X150.331 Y137.837 E0.03373
G1 X150.609 Y137.941 E0.01863
G1 X150.835 Y138.063 E0.01617
G1 X151.482 Y138.499 E0.04893
G1 X151.769 Y138.746 E0.02382
G1 X153.577 Y140.908 E0.17693
G1 X154.179 Y140.617 F27000
G1 F1200
G1 X154.447 Y140.26 E0.02801
G1 X154.557 Y141.244 E0.06217
G1 X153.539 Y141.611 E0.06796
G1 X152.535 Y142.482 E0.08344
G1 X152.104 Y142.919 E0.03856
G1 X151.426 Y143.728 E0.06625
G1 X151.209 Y143.769 E0.0139
G1 X150.266 Y144.382 E0.07057
G1 X149.592 Y145.266 E0.06977
G1 X149.382 Y145.996 E0.04772
G1 X149.335 Y146.683 E0.04324
G1 X148.928 Y146.652 E0.02567
G1 X148.347 Y146.704 E0.0366
G1 X147.586 Y147.002 E0.0513
G1 X147.188 Y147.243 E0.02923
G1 X146.799 Y147.558 E0.03139
G1 X146.245 Y148.212 E0.05381
G1 X146.174 Y148.379 E0.01142
G1 X144.288 Y150.098 E0.16021
G1 X143.94 Y150.332 E0.0263
G1 X143.496 Y150.688 E0.03575
G1 X142.431 Y151.659 E0.09047
G1 X142.035 Y152.068 E0.03575
G1 X141.451 Y152.785 E0.05803
G1 X140.643 Y153.201 E0.05708
G1 X139.991 Y153.841 E0.05734
G1 X139.825 Y154.146 E0.0218
G1 X137.931 Y155.864 E0.16053
G1 X137.357 Y156.275 E0.04429
G1 X137.047 Y155.993 E0.02631
G1 X137.679 Y154.902 E0.07918
G1 X138.506 Y153.636 E0.09488
G1 X140.054 Y151.514 E0.16494
G1 X141.048 Y150.361 E0.09555
G1 X142.782 Y148.561 E0.15691
G1 X143.453 Y147.771 E0.06506
G1 X144.112 Y146.52 E0.0888
G1 X144.313 Y145.734 E0.05087
G1 X144.425 Y144.891 E0.05344
G1 X144.574 Y143.411 E0.09336
G1 X144.761 Y142.557 E0.05489
G1 X144.929 Y141.982 E0.03758
G1 X145.384 Y140.756 E0.08209
G1 X145.788 Y139.948 E0.05673
G1 X146.154 Y139.331 E0.04504
G1 X146.938 Y138.313 E0.08067
G1 X147.227 Y138.027 E0.02555
G1 X147.562 Y137.737 E0.02781
G1 X147.951 Y137.454 E0.03016
G1 X148.286 Y137.267 E0.02412
G1 X148.66 Y137.13 E0.02501
G1 X148.91 Y137.055 E0.01636
G1 X149.18 Y137.026 E0.01706
G1 X149.593 Y137.017 E0.02591
G1 X149.936 Y137.055 E0.02168
G1 X150.531 Y137.219 E0.03876
G1 X150.878 Y137.349 E0.02327
G1 X151.172 Y137.508 E0.02098
G1 X151.876 Y137.983 E0.05327
G1 X152.232 Y138.289 E0.02955
G1 X154.179 Y140.617 E0.19049
G1 X154.151 Y139.572 F27000
G1 F1200
G1 X155.261 Y138.087 E0.1164
G1 X155.66 Y138.318 E0.02892
G1 X155.286 Y139.191 E0.05964
G1 X155.112 Y140.376 E0.0752
G1 X155.209 Y141.235 E0.05427
G1 X155.215 Y141.947 E0.04469
G1 X154.933 Y141.908 E0.01789
G1 X154.516 Y141.948 E0.02628
G1 X153.873 Y142.18 E0.04296
G1 X152.979 Y142.955 E0.07426
G1 X152.584 Y143.356 E0.03531
G1 X151.774 Y144.323 E0.07918
G1 X151.455 Y144.383 E0.02042
G1 X150.714 Y144.865 E0.05547
G1 X150.182 Y145.562 E0.05508
G1 X150.024 Y146.109 E0.03573
G1 X149.994 Y146.556 E0.02815
G1 X150.129 Y147.558 E0.06346
G1 X149.357 Y147.335 E0.05044
G1 X148.932 Y147.302 E0.02674
G1 X148.498 Y147.342 E0.02738
G1 X147.874 Y147.586 E0.04202
G1 X147.561 Y147.776 E0.02299
G1 X147.254 Y148.023 E0.02477
G1 X146.804 Y148.556 E0.04381
G1 X146.557 Y149.135 E0.03948
G1 X146.441 Y149.014 E0.01055
G1 X144.689 Y150.61 E0.14881
G1 X144.324 Y150.855 E0.02756
G1 X143.918 Y151.181 E0.03273
G1 X142.883 Y152.125 E0.08793
G1 X142.52 Y152.499 E0.03273
G1 X141.869 Y153.3 E0.06479
G1 X141.027 Y153.733 E0.05945
G1 X140.514 Y154.236 E0.04508
G1 X140.342 Y154.552 E0.0226
G1 X138.339 Y156.369 E0.16978
G1 X137.951 Y156.647 E0.02997
G1 X137.61 Y156.988 E0.03026
G1 X137.414 Y157.242 E0.02014
G1 X136.929 Y157.694 E0.04161
G1 X136.911 Y157.776 E0.00531
G1 X135.494 Y158.789 E0.10936
G1 X135.535 Y158.084 E0.04437
G1 X135.707 Y157.354 E0.0471
G1 X135.906 Y156.839 E0.03461
G1 X136.305 Y155.98 E0.05946
G1 X137.127 Y154.562 E0.10293
G1 X137.972 Y153.267 E0.09702
G1 X139.546 Y151.11 E0.16766
G1 X140.569 Y149.924 E0.09833
G1 X142.301 Y148.126 E0.15673
G1 X142.912 Y147.405 E0.05932
G1 X143.503 Y146.285 E0.07953
G1 X143.675 Y145.611 E0.04365
G1 X143.781 Y144.815 E0.05041
G1 X143.933 Y143.309 E0.09506
G1 X144.133 Y142.396 E0.05862
G1 X144.313 Y141.778 E0.04042
G1 X144.788 Y140.498 E0.08574
G1 X145.218 Y139.637 E0.06041
G1 X145.617 Y138.967 E0.04895
G1 X146.451 Y137.883 E0.08585
G1 X146.787 Y137.55 E0.0297
G1 X147.159 Y137.229 E0.03087
G1 X147.6 Y136.907 E0.0343
G1 X148.015 Y136.676 E0.02978
G1 X148.456 Y136.514 E0.02949
G1 X148.782 Y136.417 E0.02138
G1 X149.138 Y136.379 E0.02247
G1 X149.621 Y136.367 E0.03033
G1 X150.059 Y136.416 E0.02766
G1 X150.731 Y136.602 E0.04379
G1 X151.148 Y136.757 E0.02791
G1 X151.509 Y136.953 E0.02579
G1 X152.27 Y137.466 E0.05761
G1 X152.696 Y137.833 E0.03528
G1 X154.151 Y139.572 E0.14238
G1 E-0.5 F1800
G1 X159.962 Y146.96 F27000
G1 E0.5 F1800
G1 F1200
G1 X161.254 Y148.252 E0.11467
G1 X161.504 Y148.56 E0.0249
G1 X161.895 Y149.185 E0.04627
G1 X162.018 Y149.433 E0.0174
G1 X162.11 Y149.694 E0.01742
G1 X162.174 Y149.94 E0.01591
G1 X162.231 Y150.291 E0.02232
G1 X162.234 Y150.6 E0.0194
G1 X162.132 Y151.091 E0.03149
G1 X161.994 Y151.412 E0.02198
G1 X161.801 Y151.708 E0.02214
G1 X161.565 Y152.026 E0.02491
G1 X161.305 Y152.307 E0.02402
G1 X160.927 Y152.661 E0.03251
G1 X160.536 Y152.97 E0.03131
G1 X160.01 Y153.32 E0.03962
G1 X159.158 Y153.779 E0.06079
G1 X158.212 Y154.173 E0.06434
G1 X157.209 Y154.489 E0.06602
G1 X156.211 Y154.691 E0.06391
G1 X155.571 Y154.766 E0.04042
G1 X154.46 Y154.861 E0.07
G1 X153.441 Y155.076 E0.06538
G1 X151.852 Y155.832 E0.11046
G1 X151.053 Y156.495 E0.06524
G1 X149.237 Y158.244 E0.15829
G1 X148.597 Y158.828 E0.05436
G1 X147.569 Y159.653 E0.08273
G1 X146.308 Y160.561 E0.09758
G1 X146.002 Y160.163 E0.03154
G1 X146.52 Y159.737 E0.04211
G1 X146.894 Y159.37 E0.03289
G1 X147.014 Y159.217 E0.01223
G1 X149.053 Y157.377 E0.17239
G1 X149.626 Y156.805 E0.05086
G1 X150.654 Y155.912 E0.08551
G1 X151.067 Y155.496 E0.03679
G1 X151.577 Y154.828 E0.05272
G1 X151.661 Y154.813 E0.00539
G1 X152.426 Y154.341 E0.05639
G1 X152.944 Y153.896 E0.04287
G1 X153.489 Y153.353 E0.04831
G1 X153.929 Y152.583 E0.05566
G1 X154.158 Y151.781 E0.05238
G1 X155.003 Y151.723 E0.05317
G1 X155.965 Y151.167 E0.06975
G1 X156.616 Y150.547 E0.05639
G1 X157.012 Y150.01 E0.04195
G1 X157.113 Y149.82 E0.01347
G1 X157.84 Y149.353 E0.05423
G1 X158.36 Y148.947 E0.04148
G1 X158.941 Y148.376 E0.05106
G1 X159.4 Y147.86 E0.04339
G1 X159.962 Y146.96 E0.0666
G1 E-0.5 F1800
; acceleration to travel
M204 S1500
G1 X150.909 Y155.931 F27000
; decel to extrusion
M204 S800
G1 X146.081 Y160.715
; end travel
G1 E0.5 F1800
G1 F1200
G1 X145.61 Y161.017 E0.03511
G1 X145.32 Y160.639 E0.02989
G1 X145.558 Y160.422 E0.0202
G1 X145.857 Y160.293 E0.02044
G1 X146.081 Y160.715 E0.03005
G1 E-0.5 F1800
G1 X153.506 Y151.11 F27000
G1 E0.5 F1800
G1 F1200
G1 X154.043 Y151.139 E0.03375
G1 X154.809 Y151.086 E0.0482
G1 X155.574 Y150.644 E0.05548
G1 X156.128 Y150.117 E0.048
G1 X156.462 Y149.664 E0.03534
G1 X156.619 Y149.366 E0.02112
G1 X157.464 Y148.824 E0.06305
G1 X157.932 Y148.458 E0.03729
G1 X158.47 Y147.929 E0.04738
G1 X158.879 Y147.47 E0.03858
G1 X159.273 Y146.839 E0.04673
G1 X159.57 Y145.651 E0.07686
G1 X161.736 Y147.817 E0.19232
G1 X162.032 Y148.182 E0.02951
G1 X162.461 Y148.868 E0.05081
G1 X162.616 Y149.18 E0.02187
G1 X162.731 Y149.504 E0.02158
G1 X162.81 Y149.806 E0.01957
G1 X162.879 Y150.235 E0.02732
G1 X162.89 Y150.551 E0.01982
G1 X162.883 Y150.663 E0.00703
G1 X162.754 Y151.287 E0.04003
G1 X162.619 Y151.622 E0.02266
G1 X162.567 Y151.72 E0.00694
G1 X162.334 Y152.078 E0.02685
G1 X162.064 Y152.442 E0.02841
G1 X161.764 Y152.765 E0.02769
G1 X161.35 Y153.152 E0.0356
G1 X160.918 Y153.495 E0.03466
G1 X160.344 Y153.877 E0.04324
G1 X159.436 Y154.365 E0.06471
G1 X158.434 Y154.782 E0.06815
G1 X157.371 Y155.118 E0.07001
G1 X156.313 Y155.332 E0.06775
G1 X155.637 Y155.411 E0.04273
G1 X154.555 Y155.504 E0.06815
G1 X153.65 Y155.694 E0.05806
G1 X152.204 Y156.382 E0.10053
G1 X151.486 Y156.979 E0.05865
G1 X149.68 Y158.717 E0.15733
G1 X149.019 Y159.321 E0.0562
G1 X147.962 Y160.169 E0.08507
G1 X146.567 Y161.174 E0.10794
G1 X144.835 Y162.297 E0.1296
G1 X144.28 Y162.638 E0.04086
G1 X142.777 Y163.414 E0.10622
G1 X142.383 Y163.552 E0.02622
G1 X141.868 Y163.678 E0.03325
G1 X141.486 Y163.748 E0.02441
G1 X141.314 Y163.393 E0.02479
G1 X142.147 Y162.66 E0.06964
G1 X145.201 Y159.87 E0.25969
G1 X145.49 Y159.745 E0.01981
G1 X146.086 Y159.255 E0.04842
G1 X146.409 Y158.937 E0.02843
G1 X146.537 Y158.773 E0.0131
G1 X148.606 Y156.907 E0.1749
G1 X149.184 Y156.33 E0.05124
G1 X150.211 Y155.438 E0.08541
G1 X150.577 Y155.069 E0.03265
G1 X151.213 Y154.236 E0.06578
G1 X151.424 Y154.197 E0.01347
G1 X152.042 Y153.816 E0.04556
G1 X152.503 Y153.42 E0.03816
G1 X152.969 Y152.955 E0.04134
G1 X153.327 Y152.33 E0.04524
G1 X153.535 Y151.603 E0.04747
G1 X153.506 Y151.11 E0.031
G1 E-0.5 F1800
G1 X160.694 Y145.858 F27000
G1 E0.5 F1800
G1 F1200
G1 X162.218 Y147.382 E0.13531
G1 X162.561 Y147.804 E0.03413
G1 X163.028 Y148.551 E0.05534
G1 X163.215 Y148.927 E0.02635
G1 X163.351 Y149.314 E0.02574
G1 X163.445 Y149.672 E0.02323
G1 X163.525 Y150.172 E0.0318
G1 X163.539 Y150.559 E0.02429
G1 X163.528 Y150.748 E0.01193
G1 X163.377 Y151.475 E0.04662
G1 X163.208 Y151.895 E0.02843
G1 X163.127 Y152.049 E0.01089
G1 X162.867 Y152.449 E0.02994
G1 X162.564 Y152.857 E0.03191
G1 X162.224 Y153.223 E0.03136
G1 X161.774 Y153.644 E0.03869
G1 X161.3 Y154.02 E0.03802
G1 X160.678 Y154.434 E0.04686
G1 X159.715 Y154.951 E0.06863
G1 X158.657 Y155.392 E0.07197
G1 X157.533 Y155.747 E0.074
G1 X156.415 Y155.973 E0.0716
G1 X155.702 Y156.056 E0.04504
G1 X154.65 Y156.146 E0.0663
G1 X153.859 Y156.313 E0.05074
G1 X152.556 Y156.933 E0.0906
G1 X151.918 Y157.463 E0.05206
G1 X150.124 Y159.191 E0.15637
G1 X149.441 Y159.814 E0.05805
G1 X148.355 Y160.685 E0.08742
G1 X146.934 Y161.71 E0.10999
G1 X145.181 Y162.845 E0.1311
G1 X144.599 Y163.203 E0.04286
G1 X143.034 Y164.011 E0.11056
G1 X142.568 Y164.175 E0.03105
G1 X142.004 Y164.312 E0.03643
G1 X141.505 Y164.404 E0.03187
G1 X141.029 Y164.403 E0.02983
G1 X140.238 Y164.305 E0.05006
G1 X139.694 Y164.142 E0.03567
G1 X140.391 Y163.449 E0.06172
G1 X140.7 Y163.068 E0.03076
G1 X141.714 Y162.177 E0.08473
G1 X144.843 Y159.318 E0.26611
G1 X145.149 Y159.186 E0.02089
G1 X145.652 Y158.772 E0.0409
G1 X145.924 Y158.504 E0.02398
G1 X146.156 Y158.208 E0.02363
G1 X146.333 Y157.851 E0.02498
G1 X146.462 Y157.263 E0.03783
G1 X146.798 Y157.665 E0.0329
G1 X148.16 Y156.436 E0.11516
G1 X148.742 Y155.855 E0.05161
G1 X149.767 Y154.964 E0.08531
G1 X150.087 Y154.642 E0.02852
G1 X150.849 Y153.644 E0.07883
G1 X151.187 Y153.581 E0.02155
G1 X151.658 Y153.291 E0.03473
G1 X152.062 Y152.944 E0.03345
G1 X152.45 Y152.557 E0.03436
G1 X152.725 Y152.076 E0.03482
G1 X152.881 Y151.531 E0.03561
G1 X152.849 Y150.991 E0.03392
G1 X152.715 Y150.236 E0.04815
G1 X153.53 Y150.461 E0.05311
G1 X154.038 Y150.489 E0.03192
G1 X154.614 Y150.45 E0.03624
G1 X155.182 Y150.121 E0.04122
G1 X155.639 Y149.686 E0.03961
G1 X155.911 Y149.318 E0.02873
G1 X156.125 Y148.913 E0.02877
G1 X157.088 Y148.294 E0.07187
G1 X157.504 Y147.97 E0.03309
G1 X158 Y147.482 E0.0437
G1 X158.358 Y147.08 E0.03377
G1 X158.669 Y146.582 E0.03684
G1 X158.812 Y146.007 E0.03725
G1 X158.805 Y145.238 E0.04823
G1 X158.643 Y144.867 E0.02544
G1 X159.351 Y144.956 E0.04479
G1 X161.753 Y144.581 E0.15263
G1 X161.91 Y144.956 E0.02552
G1 X160.694 Y145.858 E0.09508
G1 E-0.5 F1800
; acceleration to travel
M204 S1500
G1 X146.734 Y157.448 F27000
; decel to extrusion
M204 S800
G1 X139.289 Y163.63
; end travel
G1 E0.5 F1800
;TYPE:External perimeter
G1 F1200
G1 X139.91 Y163.013 E0.05495
G1 X140.231 Y162.617 E0.03201
G1 X140.387 Y162.481 E0.01298
;TYPE:Thin wall
;WIDTH:0.034435
G1 X140.288 Y162.369
;WIDTH:0.309914
G1 X140.178 Y162.283 E0.00357
;WIDTH:0.583827
G1 X140.134 Y162.249 E0.00289
G1 X140.029 Y162.146 E0.00764
;WIDTH:0.527818
G1 X139.924 Y162.044 E0.00684
G1 X138.168 Y160.506 E0.10881
;WIDTH:0.261177
G1 X138.063 Y160.413 E0.00291
;WIDTH:0.02902
G1 X138.168 Y160.506 E0.00032
;WIDTH:0.058646
G1 X139.924 Y162.044 E0.01209
G1 X140.029 Y162.146 E0.00076
;WIDTH:0.06487
G1 X140.134 Y162.249 E0.00085
G1 X140.178 Y162.283 E0.00032
;WIDTH:0.034435
G1 X140.288 Y162.369 E0.0004
;WIDTH:0.344348
G1 X140.387 Y162.481
;TYPE:External perimeter
;WIDTH:0.7
G1 X141.281 Y161.694 E0.07478
G1 X141.423 Y161.565 E0.01206
;TYPE:Thin wall
;WIDTH:0.034599
G1 X141.319 Y161.451
;WIDTH:0.311393
G1 X141.235 Y161.34 E0.00359
;WIDTH:0.586787
G1 X141.196 Y161.289 E0.00332
G1 X141.1 Y161.178 E0.0077
;WIDTH:0.529501
G1 X141.003 Y161.067 E0.00688
G1 X140.793 Y160.799 E0.01593
;WIDTH:0.473001
G1 X140.584 Y160.531 E0.01407
;WIDTH:0.4165
G1 X140.374 Y160.262 E0.0122
;WIDTH:0.36
G1 X140.164 Y159.994 E0.01034
G1 X139.614 Y159.311 E0.02662
;WIDTH:0.217028
G1 X139.526 Y159.202 E0.00231
;WIDTH:0.024114
G1 X139.614 Y159.311 E0.00026
;WIDTH:0.04
G1 X140.164 Y159.994 E0.00296
G1 X140.374 Y160.262 E0.00115
;WIDTH:0.046278
G1 X140.584 Y160.531 E0.00136
;WIDTH:0.052556
G1 X140.793 Y160.799 E0.00156
;WIDTH:0.058833
G1 X141.003 Y161.067 E0.00177
G1 X141.1 Y161.178 E0.00076
;WIDTH:0.065199
G1 X141.196 Y161.289 E0.00086
G1 X141.235 Y161.34 E0.00037
;WIDTH:0.034599
G1 X141.319 Y161.451 E0.0004
;WIDTH:0.345993
G1 X141.423 Y161.565
;TYPE:External perimeter
;WIDTH:0.7
G1 X142.531 Y160.552 E0.09425
;TYPE:Thin wall
;WIDTH:0.035129
G1 X142.431 Y160.442
;WIDTH:0.316165
G1 X142.343 Y160.333 E0.00366
;WIDTH:0.59633
G1 X142.283 Y160.26 E0.00503
G1 X142.162 Y160.134 E0.00935
;WIDTH:0.628601
G1 X142.04 Y160.007 E0.00989
G1 X140.718 Y158.621 E0.10796
G1 X139.396 Y157.235 E0.10796
G1 X139.272 Y157.105 E0.01014
G1 X139.148 Y156.975 E0.01014
G1 X139.113 Y156.933 E0.00307
;WIDTH:0.336054
G1 X139.023 Y156.825 E0.00393
;WIDTH:0.037339
G1 X139.113 Y156.933 E0.00044
