; generated by SuperSlicer 2.4 on 2023-07-02 at 07:04:00 UTC


;
;

;
;
; 

; external perimeters extrusion width = 0.40mm
; perimeters extrusion width = 0.50mm
; infill extrusion width = 0.64mm
; solid infill extrusion width = 0.56mm
; top infill extrusion width = 0.40mm
; first layer extrusion width = 0.70mm

; object:{"name":"QR","id":"QR.STL id:0 copy 0","object_center":[150.000000,150.000000,0.000000],"boundingbox_center":[150.000000,150.000000,1.000000],"boundingbox_size":[41.012193,41.012193,2.000000]}
; plater:{"center":[150.000000,150.000000,0.000000],"boundingbox_center":[150.000000,150.000000,1.000000],"boundingbox_size":[41.012193,41.012193,2.000000]}

M73 P0 R10
;TYPE:Custom
; custom gcode: start_gcode
M104 S0 ; Stops PS/SS from sending temp waits separately
M140 S0
PRINT_START BED=105 HOTEND=240
; custom gcode end: start_gcode
M107
G21 ; set units to millimeters
G90 ; use absolute coordinates
M83 ; use relative distances for extrusion
; custom gcode: start_filament_gcode
; Filament gcode
; custom gcode end: start_filament_gcode
;_TOOLCHANGE 0
;LAYER_CHANGE
;Z:0.24
;HEIGHT:0.24
G1 Z0.24 F27000
G92 E0
M104 S240 ; set temperature
M73 P3 R9
G1 E-0.5 F1800
; printing object QR.STL id:0 copy 0
M204 S800
G1 X167.118 Y150 F27000
G1 E0.5 F1800
;TYPE:Internal perimeter
;WIDTH:0.7
G1 F1200
G1 X150 Y167.118 E1.51982
G1 X132.882 Y150 E1.51982
G1 X150 Y132.882 E1.51982
M73 P4 R9
G1 X167.118 Y150 E1.51982
G1 X168.035 Y150 F27000
G1 F1200
G1 X150 Y168.035 E1.60124
G1 X131.965 Y150 E1.60124
G1 X150 Y131.965 E1.60124
G1 X168.035 Y150 E1.60124
M73 P5 R9
G1 X168.953 Y150 F27000
G1 F1200
G1 X150 Y168.953 E1.68266
G1 X131.047 Y150 E1.68266
G1 X150 Y131.047 E1.68266
G1 X168.953 Y150 E1.68266
M73 P6 R9
G1 E-0.5 F1800
; acceleration to travel
M204 S1500
G1 X156.592 Y162.958 F27000
; decel to extrusion
M204 S800
G1 X150 Y169.87
; end travel
G1 E0.5 F1800
;TYPE:External perimeter
G1 F1200
G1 X130.13 Y150 E1.76409
G1 X150 Y130.13 E1.76409
G1 X169.87 Y150 E1.76409
G1 X150 Y169.87 E1.76409
;WIPE_START
M204 S3500
M73 P7 R9
G1 X149.896 Y169.483 F27000
;WIPE_END
G1 E-0.5 F1800
; acceleration to travel
M204 S1500
G1 X150.567 Y146.355 F27000
; decel to extrusion
M204 S800
G1 X150.927 Y133.946
; end travel
G1 E0.5 F1800
;TYPE:Solid infill
;WIDTH:0.681598
G1 F2400
G1 X149.467 Y133.946 E0.08922
G1 X148.819 Y134.595 E0.05606
G1 X151.181 Y134.595 E0.14439
G1 X151.83 Y135.243 E0.05606
G1 X148.17 Y135.243 E0.22368
G1 X147.522 Y135.892 E0.05606
G1 X152.478 Y135.892 E0.30296
G1 X153.127 Y136.54 E0.05606
G1 X146.873 Y136.54 E0.38224
G1 X146.225 Y137.189 E0.05606
G1 X153.775 Y137.189 E0.46153
G1 X154.424 Y137.837 E0.05606
G1 X145.576 Y137.837 E0.54081
G1 X144.928 Y138.486 E0.05606
G1 X155.072 Y138.486 E0.62009
G1 X155.721 Y139.134 E0.05606
G1 X144.279 Y139.134 E0.69938
G1 X143.631 Y139.783 E0.05606
G1 X156.369 Y139.783 E0.77866
G1 X157.018 Y140.431 E0.05606
G1 X142.982 Y140.431 E0.85794
G1 X142.334 Y141.08 E0.05606
G1 X157.666 Y141.08 E0.93723
G1 X158.315 Y141.728 E0.05606
G1 X141.685 Y141.728 E1.01651
G1 X141.037 Y142.377 E0.05606
G1 X158.963 Y142.377 E1.09579
G1 X159.612 Y143.025 E0.05606
G1 X140.388 Y143.025 E1.17507
G1 X139.74 Y143.674 E0.05606
G1 X160.26 Y143.674 E1.25436
M73 P8 R9
G1 X160.908 Y144.322 E0.05606
G1 X139.091 Y144.322 E1.33364
G1 X138.443 Y144.971 E0.05606
G1 X161.557 Y144.971 E1.41292
G1 X162.205 Y145.619 E0.05606
G1 X137.795 Y145.619 E1.49221
G1 X137.146 Y146.268 E0.05606
G1 X162.854 Y146.268 E1.57149
G1 X163.502 Y146.916 E0.05606
G1 X136.498 Y146.916 E1.65077
G1 X135.849 Y147.565 E0.05606
G1 X164.151 Y147.565 E1.73006
G1 X164.799 Y148.213 E0.05606
G1 X135.201 Y148.213 E1.80934
G1 X134.552 Y148.861 E0.05606
G1 X165.448 Y148.861 E1.88862
M73 P9 R9
G1 X166.096 Y149.51 E0.05606
G1 X133.904 Y149.51 E1.96791
G1 X133.414 Y150 E0.04236
G1 X133.572 Y150.158 E0.0137
G1 X166.428 Y150.158 E2.00844
G1 X165.779 Y150.807 E0.05606
G1 X134.221 Y150.807 E1.92915
G1 X134.869 Y151.455 E0.05606
G1 X165.131 Y151.455 E1.84987
G1 X164.483 Y152.104 E0.05606
G1 X135.517 Y152.104 E1.77059
G1 X136.166 Y152.752 E0.05606
G1 X163.834 Y152.752 E1.6913
G1 X163.186 Y153.401 E0.05606
G1 X136.814 Y153.401 E1.61202
G1 X137.463 Y154.049 E0.05606
G1 X162.537 Y154.049 E1.53274
M73 P10 R9
G1 X161.889 Y154.698 E0.05606
G1 X138.111 Y154.698 E1.45346
G1 X138.76 Y155.346 E0.05606
G1 X161.24 Y155.346 E1.37417
G1 X160.592 Y155.995 E0.05606
G1 X139.408 Y155.995 E1.29489
M73 P10 R8
G1 X140.057 Y156.643 E0.05606
G1 X159.943 Y156.643 E1.21561
G1 X159.295 Y157.292 E0.05606
G1 X140.705 Y157.292 E1.13632
G1 X141.354 Y157.94 E0.05606
G1 X158.646 Y157.94 E1.05704
G1 X157.998 Y158.589 E0.05606
G1 X142.002 Y158.589 E0.97776
G1 X142.651 Y159.237 E0.05606
G1 X157.349 Y159.237 E0.89847
G1 X156.701 Y159.886 E0.05606
G1 X143.299 Y159.886 E0.81919
G1 X143.948 Y160.534 E0.05606
G1 X156.052 Y160.534 E0.73991
G1 X155.404 Y161.183 E0.05606
G1 X144.596 Y161.183 E0.66062
M73 P11 R8
G1 X145.245 Y161.831 E0.05606
G1 X154.755 Y161.831 E0.58134
G1 X154.107 Y162.48 E0.05606
G1 X145.893 Y162.48 E0.50206
G1 X146.542 Y163.128 E0.05606
G1 X153.458 Y163.128 E0.42278
G1 X152.81 Y163.777 E0.05606
G1 X147.19 Y163.777 E0.34349
G1 X147.839 Y164.425 E0.05606
G1 X152.161 Y164.425 E0.26421
G1 X151.513 Y165.074 E0.05606
G1 X148.487 Y165.074 E0.18493
G1 X149.136 Y165.722 E0.05606
G1 X150.864 Y165.722 E0.10564
G1 X150.216 Y166.371 E0.05606
G1 X149.39 Y166.371 E0.05047
;LAYER_CHANGE
;Z:0.4
;HEIGHT:0.16
; stop printing object QR.STL id:0 copy 0
M204 S3500
G1 Z0.4 F27000
G92 E0
M104 S245 ; set temperature
M140 S110 ; set bed temperature
; printing object QR.STL id:0 copy 0
M204 S2000
G1 X168.224 Y150
;TYPE:Internal perimeter
;WIDTH:0.5
G1 F9000
G1 X150 Y168.224 E0.73766
G1 X131.776 Y150 E0.73766
G1 X150 Y131.776 E0.73766
G1 X168.224 Y150 E0.73766
G1 X168.883 Y150 F27000
G1 F9000
G1 X150 Y168.883 E0.76432
G1 X131.117 Y150 E0.76432
G1 X150 Y131.117 E0.76432
G1 X168.883 Y150 E0.76432
G1 X169.541 Y150 F27000
G1 F9000
G1 X150 Y169.541 E0.79098
G1 X130.459 Y150 E0.79098
G1 X150 Y130.459 E0.79098
G1 X169.541 Y150 E0.79098
; acceleration to travel
M204 S1500
G1 X157.418 Y162.487 F27000
; decel to extrusion
M204 S1000
G1 X150 Y170.129
; end travel
;TYPE:External perimeter
;WIDTH:0.4
G1 F4800
G1 X129.871 Y150 E0.6398
G1 X150 Y129.871 E0.6398
G1 X150.165 Y130.036 E0.00524
G1 X170.129 Y150 E0.63456
M73 P12 R8
G1 X150 Y170.129 E0.6398
;WIPE_START
M204 S3500
G1 X149.896 Y169.743 F27000
;WIPE_END
G1 X167.387 Y149.249
;TYPE:Solid infill
;WIDTH:0.551685
G1 F12000
G1 X167.387 Y150.432 E0.03766
G1 X166.861 Y150.957 E0.02366
G1 X166.861 Y149.043 E0.06095
G1 X166.335 Y148.517 E0.02366
G1 X166.335 Y151.483 E0.09441
G1 X165.81 Y152.009 E0.02366
G1 X165.81 Y147.991 E0.12787
G1 X165.284 Y147.466 E0.02366
G1 X165.284 Y152.534 E0.16134
G1 X164.758 Y153.06 E0.02366
G1 X164.758 Y146.94 E0.1948
G1 X164.233 Y146.414 E0.02366
G1 X164.233 Y153.586 E0.22827
G1 X163.707 Y154.111 E0.02366
G1 X163.707 Y145.889 E0.26173
G1 X163.181 Y145.363 E0.02366
G1 X163.181 Y154.637 E0.29519
G1 X162.656 Y155.163 E0.02366
G1 X162.656 Y144.837 E0.32866
G1 X162.13 Y144.312 E0.02366
G1 X162.13 Y155.688 E0.36212
G1 X161.604 Y156.214 E0.02366
G1 X161.604 Y143.786 E0.39558
G1 X161.079 Y143.26 E0.02366
G1 X161.079 Y156.74 E0.42905
G1 X160.553 Y157.265 E0.02366
G1 X160.553 Y142.735 E0.46251
G1 X160.027 Y142.209 E0.02366
G1 X160.027 Y157.791 E0.49598
G1 X159.502 Y158.317 E0.02366
G1 X159.502 Y141.683 E0.52944
G1 X158.976 Y141.158 E0.02366
G1 X158.976 Y158.842 E0.5629
G1 X158.45 Y159.368 E0.02366
G1 X158.45 Y140.632 E0.59637
G1 X157.925 Y140.106 E0.02366
G1 X157.925 Y159.894 E0.62983
G1 X157.399 Y160.419 E0.02366
G1 X157.399 Y139.581 E0.66329
G1 X156.873 Y139.055 E0.02366
G1 X156.873 Y160.945 E0.69676
G1 X156.348 Y161.471 E0.02366
G1 X156.348 Y138.529 E0.73022
G1 X155.822 Y138.004 E0.02366
G1 X155.822 Y161.996 E0.76368
G1 X155.296 Y162.522 E0.02366
G1 X155.296 Y137.478 E0.79715
G1 X154.771 Y136.952 E0.02366
G1 X154.771 Y163.048 E0.83061
G1 X154.245 Y163.573 E0.02366
G1 X154.245 Y136.427 E0.86408
G1 X153.719 Y135.901 E0.02366
G1 X153.719 Y164.099 E0.89754
G1 X153.194 Y164.625 E0.02366
G1 X153.194 Y135.375 E0.931
G1 X152.668 Y134.85 E0.02366
G1 X152.668 Y165.15 E0.96447
G1 X152.142 Y165.676 E0.02366
G1 X152.142 Y134.324 E0.99793
G1 X151.617 Y133.798 E0.02366
G1 X151.617 Y166.202 E1.03139
G1 X151.091 Y166.727 E0.02366
G1 X151.091 Y133.273 E1.06486
G1 X150.565 Y132.747 E0.02366
G1 X150.565 Y167.253 E1.09832
M73 P13 R8
G1 X150.04 Y167.779 E0.02366
G1 X150.04 Y132.221 E1.13179
G1 X150 Y132.182 E0.00179
G1 X149.514 Y132.668 E0.02187
G1 X149.514 Y167.332 E1.10338
G1 X148.988 Y166.807 E0.02366
G1 X148.988 Y133.193 E1.06992
G1 X148.463 Y133.719 E0.02366
G1 X148.463 Y166.281 E1.03646
G1 X147.937 Y165.755 E0.02366
G1 X147.937 Y134.245 E1.00299
G1 X147.411 Y134.77 E0.02366
G1 X147.411 Y165.23 E0.96953
G1 X146.886 Y164.704 E0.02366
G1 X146.886 Y135.296 E0.93606
G1 X146.36 Y135.822 E0.02366
G1 X146.36 Y164.178 E0.9026
G1 X145.834 Y163.653 E0.02366
G1 X145.834 Y136.347 E0.86914
G1 X145.309 Y136.873 E0.02366
G1 X145.309 Y163.127 E0.83567
G1 X144.783 Y162.601 E0.02366
G1 X144.783 Y137.399 E0.80221
G1 X144.257 Y137.924 E0.02366
G1 X144.257 Y162.076 E0.76875
G1 X143.732 Y161.55 E0.02366
G1 X143.732 Y138.45 E0.73528
G1 X143.206 Y138.976 E0.02366
G1 X143.206 Y161.024 E0.70182
G1 X142.68 Y160.499 E0.02366
G1 X142.68 Y139.501 E0.66835
G1 X142.155 Y140.027 E0.02366
G1 X142.155 Y159.973 E0.63489
G1 X141.629 Y159.447 E0.02366
G1 X141.629 Y140.553 E0.60143
G1 X141.103 Y141.078 E0.02366
G1 X141.103 Y158.922 E0.56796
G1 X140.578 Y158.396 E0.02366
G1 X140.578 Y141.604 E0.5345
G1 X140.052 Y142.13 E0.02366
G1 X140.052 Y157.87 E0.50104
G1 X139.526 Y157.345 E0.02366
G1 X139.526 Y142.655 E0.46757
G1 X139.001 Y143.181 E0.02366
G1 X139.001 Y156.819 E0.43411
G1 X138.475 Y156.294 E0.02366
G1 X138.475 Y143.706 E0.40064
G1 X137.95 Y144.232 E0.02366
G1 X137.95 Y155.768 E0.36718
G1 X137.424 Y155.242 E0.02366
G1 X137.424 Y144.758 E0.33372
G1 X136.898 Y145.283 E0.02366
G1 X136.898 Y154.717 E0.30025
G1 X136.373 Y154.191 E0.02366
G1 X136.373 Y145.809 E0.26679
G1 X135.847 Y146.335 E0.02366
G1 X135.847 Y153.665 E0.23333
G1 X135.321 Y153.14 E0.02366
G1 X135.321 Y146.86 E0.19986
G1 X134.796 Y147.386 E0.02366
G1 X134.796 Y152.614 E0.1664
G1 X134.27 Y152.088 E0.02366
G1 X134.27 Y147.912 E0.13293
G1 X133.744 Y148.437 E0.02366
G1 X133.744 Y151.563 E0.09947
G1 X133.219 Y151.037 E0.02366
G1 X133.219 Y148.963 E0.06601
G1 X132.693 Y149.489 E0.02366
G1 X132.693 Y150.831 E0.04272
;LAYER_CHANGE
;Z:0.56
;HEIGHT:0.16
; stop printing object QR.STL id:0 copy 0
G1 Z0.56 F27000
G92 E0
; printing object QR.STL id:0 copy 0
M204 S2000
G1 X168.271 Y150
;TYPE:Internal perimeter
;WIDTH:0.5
G1 F7114
G1 X150 Y168.271 E0.73957
M73 P14 R8
G1 X131.729 Y150 E0.73957
G1 X150 Y131.729 E0.73957
G1 X168.271 Y150 E0.73957
G1 X168.93 Y150 F27000
G1 F7114
G1 X150 Y168.93 E0.76623
G1 X131.07 Y150 E0.76623
G1 X150 Y131.07 E0.76623
G1 X168.93 Y150 E0.76623
G1 X169.588 Y150 F27000
G1 F7114
G1 X150 Y169.588 E0.79288
G1 X130.412 Y150 E0.79288
G1 X150 Y130.412 E0.79288
G1 X169.588 Y150 E0.79288
; acceleration to travel
M204 S1500
G1 X157.436 Y162.517 F27000
; decel to extrusion
M204 S1000
G1 X150 Y170.176
; end travel
;TYPE:External perimeter
;WIDTH:0.4
G1 F4800
G1 X129.824 Y150 E0.6413
G1 X150 Y129.824 E0.6413
G1 X150.189 Y130.012 E0.00599
G1 X170.176 Y150 E0.63531
G1 X150 Y170.176 E0.6413
;WIPE_START
M204 S3500
G1 X149.896 Y169.79 F27000
;WIPE_END
G1 X149.249 Y132.566
;TYPE:Solid infill
;WIDTH:0.551447
G1 F7114
G1 X150.432 Y132.566 E0.03764
G1 X150.957 Y133.092 E0.02365
G1 X149.043 Y133.092 E0.06092
G1 X148.517 Y133.618 E0.02365
G1 X151.483 Y133.618 E0.09437
G1 X152.009 Y134.143 E0.02365
G1 X147.991 Y134.143 E0.12782
G1 X147.466 Y134.669 E0.02365
G1 X152.534 Y134.669 E0.16127
G1 X153.06 Y135.195 E0.02365
G1 X146.94 Y135.195 E0.19472
G1 X146.414 Y135.72 E0.02365
G1 X153.586 Y135.72 E0.22817
G1 X154.111 Y136.246 E0.02365
G1 X145.889 Y136.246 E0.26162
M73 P15 R8
G1 X145.363 Y136.772 E0.02365
G1 X154.637 Y136.772 E0.29507
G1 X155.163 Y137.297 E0.02365
G1 X144.837 Y137.297 E0.32851
G1 X144.312 Y137.823 E0.02365
G1 X155.688 Y137.823 E0.36196
G1 X156.214 Y138.349 E0.02365
G1 X143.786 Y138.349 E0.39541
G1 X143.26 Y138.874 E0.02365
G1 X156.74 Y138.874 E0.42886
G1 X157.265 Y139.4 E0.02365
G1 X142.735 Y139.4 E0.46231
G1 X142.209 Y139.926 E0.02365
G1 X157.791 Y139.926 E0.49576
G1 X158.317 Y140.451 E0.02365
G1 X141.683 Y140.451 E0.52921
G1 X141.158 Y140.977 E0.02365
G1 X158.842 Y140.977 E0.56266
G1 X159.368 Y141.503 E0.02365
G1 X140.632 Y141.503 E0.59611
G1 X140.106 Y142.028 E0.02365
G1 X159.894 Y142.028 E0.62956
G1 X160.419 Y142.554 E0.02365
G1 X139.581 Y142.554 E0.66301
G1 X139.055 Y143.079 E0.02365
G1 X160.945 Y143.079 E0.69646
G1 X161.471 Y143.605 E0.02365
G1 X138.529 Y143.605 E0.72991
G1 X138.004 Y144.131 E0.02365
G1 X161.996 Y144.131 E0.76336
G1 X162.522 Y144.656 E0.02365
G1 X137.478 Y144.656 E0.7968
G1 X136.952 Y145.182 E0.02365
G1 X163.048 Y145.182 E0.83025
G1 X163.573 Y145.708 E0.02365
G1 X136.427 Y145.708 E0.8637
G1 X135.901 Y146.233 E0.02365
G1 X164.099 Y146.233 E0.89715
G1 X164.625 Y146.759 E0.02365
G1 X135.375 Y146.759 E0.9306
G1 X134.85 Y147.285 E0.02365
G1 X165.15 Y147.285 E0.96405
G1 X165.676 Y147.81 E0.02365
G1 X134.324 Y147.81 E0.9975
G1 X133.798 Y148.336 E0.02365
G1 X166.202 Y148.336 E1.03095
G1 X166.727 Y148.862 E0.02365
G1 X133.273 Y148.862 E1.0644
G1 X132.747 Y149.387 E0.02365
G1 X167.253 Y149.387 E1.09785
G1 X167.779 Y149.913 E0.02365
G1 X132.221 Y149.913 E1.1313
M73 P16 R8
G1 X132.135 Y150 E0.00391
G1 X132.573 Y150.439 E0.01974
G1 X167.427 Y150.439 E1.10891
G1 X166.901 Y150.964 E0.02365
G1 X133.099 Y150.964 E1.07546
G1 X133.625 Y151.49 E0.02365
G1 X166.375 Y151.49 E1.04201
G1 X165.85 Y152.016 E0.02365
G1 X134.15 Y152.016 E1.00856
G1 X134.676 Y152.541 E0.02365
G1 X165.324 Y152.541 E0.97511
G1 X164.798 Y153.067 E0.02365
G1 X135.202 Y153.067 E0.94166
G1 X135.727 Y153.593 E0.02365
G1 X164.273 Y153.593 E0.90821
G1 X163.747 Y154.118 E0.02365
G1 X136.253 Y154.118 E0.87476
G1 X136.779 Y154.644 E0.02365
G1 X163.221 Y154.644 E0.84131
G1 X162.696 Y155.17 E0.02365
G1 X137.304 Y155.17 E0.80786
G1 X137.83 Y155.695 E0.02365
G1 X162.17 Y155.695 E0.77441
G1 X161.644 Y156.221 E0.02365
G1 X138.356 Y156.221 E0.74096
G1 X138.881 Y156.747 E0.02365
G1 X161.119 Y156.747 E0.70751
G1 X160.593 Y157.272 E0.02365
G1 X139.407 Y157.272 E0.67407
G1 X139.933 Y157.798 E0.02365
G1 X160.067 Y157.798 E0.64062
G1 X159.542 Y158.324 E0.02365
G1 X140.458 Y158.324 E0.60717
G1 X140.984 Y158.849 E0.02365
G1 X159.016 Y158.849 E0.57372
G1 X158.49 Y159.375 E0.02365
G1 X141.51 Y159.375 E0.54027
G1 X142.035 Y159.901 E0.02365
G1 X157.965 Y159.901 E0.50682
G1 X157.439 Y160.426 E0.02365
G1 X142.561 Y160.426 E0.47337
G1 X143.087 Y160.952 E0.02365
G1 X156.913 Y160.952 E0.43992
G1 X156.388 Y161.478 E0.02365
G1 X143.612 Y161.478 E0.40647
G1 X144.138 Y162.003 E0.02365
G1 X155.862 Y162.003 E0.37302
G1 X155.336 Y162.529 E0.02365
G1 X144.664 Y162.529 E0.33957
M73 P17 R8
G1 X145.189 Y163.055 E0.02365
G1 X154.811 Y163.055 E0.30612
G1 X154.285 Y163.58 E0.02365
G1 X145.715 Y163.58 E0.27267
G1 X146.241 Y164.106 E0.02365
G1 X153.759 Y164.106 E0.23922
G1 X153.234 Y164.632 E0.02365
G1 X146.766 Y164.632 E0.20578
G1 X147.292 Y165.157 E0.02365
G1 X152.708 Y165.157 E0.17233
G1 X152.182 Y165.683 E0.02365
G1 X147.818 Y165.683 E0.13888
G1 X148.343 Y166.209 E0.02365
G1 X151.657 Y166.209 E0.10543
G1 X151.131 Y166.734 E0.02365
G1 X148.869 Y166.734 E0.07198
G1 X149.395 Y167.26 E0.02365
G1 X150.605 Y167.26 E0.03853
G1 X150.08 Y167.786 E0.02365
G1 X149.601 Y167.786 E0.01525
;LAYER_CHANGE
;Z:0.72
;HEIGHT:0.16
; stop printing object QR.STL id:0 copy 0
G1 Z0.72 F27000
G92 E0
; printing object QR.STL id:0 copy 0
M204 S2000
G1 X168.318 Y150
;TYPE:Internal perimeter
;WIDTH:0.5
G1 F7150
G1 X150 Y168.318 E0.74148
G1 X131.682 Y150 E0.74148
G1 X150 Y131.682 E0.74148
G1 X168.318 Y150 E0.74148
G1 X168.977 Y150 F27000
G1 F7150
G1 X150 Y168.977 E0.76814
G1 X131.023 Y150 E0.76814
G1 X150 Y131.023 E0.76814
